X:1
T:Ashover simple chords 1
M:3/4
L:1/8
K:Ddor
e2 [d4G,4B,4D4] | B2 [A2D,2^F,2A,2]>B2 | c2 [B4G,4B,4D4] | G2 [A4D,4^F,4A,4] | e2 [d4G,4B,4D4] |
B2 [A2D,2^F,2A,2]>B2 | c2 [BF,,][F,A,C] [FF,,][F,A,C] | [G2G,,2] [G,2B,2D2] [e2G,2B,2D2] | e2 [d4G,4B,4D4G,4B,4D4] |
B2 [A2D,2^F,2A,2]>B2 | c2 [B4G,4B,4D4] | G2 [A4D,4^F,4A,4] | e2 [d4G,4B,4D4] |
B2 [A2D,2^F,2A,2]>B2 | c2 [BF,,][F,A,C] [FF,,][F,A,C] | [G2G,,2] [G,2B,2D2] [e2G,2B,2D2] | [g2C,,2] [C,2E,2G,2] [e2C,2E,2G,2] |
[f2_B,,2] [B,2D2F2] [d2B,2D2F2] | [c2F,,2] [F,2A,2C2] [A2F,2A,2C2] | [F2F,,2] [F,2A,2C2] [e2F,2A,2C2] | [g2C,,2] [C,2E,2G,2] [e2C,2E,2G,2] |
[f2_B,,2] [B,2D2F2] [d2B,2D2F2] | [cF,,][F,A,C] [AF,,][F,A,C] [G2G,,2] | [G,2B,2D2] [e2G,2B,2D2] [g2C,,2] | [C,2E,2G,2] [e2C,2E,2G,2] [f2_B,,2] |
[_B,2D2F2] [d2B,2D2F2] [c2F,,2] | [F,2A,2C2] [A2F,2A,2C2] [F2F,,2] | [F,2A,2C2] [e2F,2A,2C2] [g2C,,2] | [C,2E,2G,2] [e2C,2E,2G,2] [f2_B,,2] |
[_B,2D2F2] [d2B,2D2F2] [cF,,][F,A,C] | [AF,,][F,A,C] [G2G,,2] [G,2B,2D2] | [G,B,D] |


